svg/regular/bx-disc.svg

<svg xmlns="http://www.w3.org/2000/svg" width="24" height="24"><path fill="none" d="M12 4c-4.411 0-8 3.589-8 8s3.589 8 8 8 8-3.589 8-8-3.589-8-8-8zm0 12c-2.206 0-4-1.794-4-4s1.794-4 4-4 4 1.794 4 4-1.794 4-4 4z"/><circle fill="none" cx="12" cy="12" r="2"/><path d="M12 2C6.486 2 2 6.486 2 12s4.486 10 10 10 10-4.486 10-10S17.514 2 12 2zm0 18c-4.411 0-8-3.589-8-8s3.589-8 8-8 8 3.589 8 8-3.589 8-8 8z"/><path d="M12 8c-2.206 0-4 1.794-4 4s1.794 4 4 4 4-1.794 4-4-1.794-4-4-4zm0 6c-1.103 0-2-.897-2-2s.897-2 2-2 2 .897 2 2-.897 2-2 2z"/></svg>

<svg xmlns="http://www.w3.org/2000/svg" width="24" height="24" viewBox="0 0 24 24"><path fill="none" d="M12,4c-4.411,0-8,3.589-8,8s3.589,8,8,8s8-3.589,8-8S16.411,4,12,4z M12,16c-2.206,0-4-1.794-4-4s1.794-4,4-4 s4,1.794,4,4S14.206,16,12,16z"/><circle fill="none" cx="12" cy="12" r="2"/><path d="M12,2C6.486,2,2,6.486,2,12s4.486,10,10,10s10-4.486,10-10S17.514,2,12,2z M12,20c-4.411,0-8-3.589-8-8s3.589-8,8-8 s8,3.589,8,8S16.411,20,12,20z"/><path d="M12,8c-2.206,0-4,1.794-4,4s1.794,4,4,4s4-1.794,4-4S14.206,8,12,8z M12,14c-1.103,0-2-0.897-2-2s0.897-2,2-2s2,0.897,2,2 S13.103,14,12,14z"/></svg>
